X:32
T: Graf und Nonne (Die Nonne)
N: Q0155e
O: Osteuropa, Ungarn, Batschka, Ujfutak
R: Ballade, Standesunterschied, vergebliche Werbung, Liebe, Klage, Tod
M: 6/8
L: 1/16
K: D
D2 | =F4F2G2F2E2 | =F6D4
FG | A4G2A4G2 | A6z4
A2 | d2d2=c2_B2A2G2 | A6=F4
F2 | E2E2E2A4A2 | D6z4

@@@ Tune index: 1742
